X: 9170
T: Dálaigh's
R: polka
M: 2/4
K: Edorian
E>F GA|Be ed|Bd/B/ AF|EF D2|
E>F GA|Be ed|Bd/B/ AF|FE E2:|
Be ef|af ed|Be ef|af d2|
Be ef|af ed|Bd/B/ AF|FE E2:|

